public/assets/img/products/safepods/key-advs/icon1.svg

<svg id="e75HuE8ek1y1" xmlns="http://www.w3.org/2000/svg" xmlns:xlink="http://www.w3.org/1999/xlink" viewBox="0 0 50 52" shape-rendering="geometricPrecision" text-rendering="geometricPrecision" project-id="d14d798cdf5f416f82d1c07f9fcc395c" export-id="1c6e18ce0e1a4aa3bb515055ac4c85c5" cached="false">
<style><![CDATA[
#e75HuE8ek1y4_ts {animation: e75HuE8ek1y4_ts__ts 3000ms linear infinite normal forwards}@keyframes e75HuE8ek1y4_ts__ts { 0% {transform: translate(31.868002px,14.455745px) rotate(361deg) scale(0.2,0.2)} 33.333333% {transform: translate(31.868002px,14.455745px) rotate(361deg) scale(1,1)} 100% {transform: translate(31.868002px,14.455745px) rotate(361deg) scale(1,1)}} #e75HuE8ek1y5 {animation: e75HuE8ek1y5_c_o 3000ms linear infinite normal forwards}@keyframes e75HuE8ek1y5_c_o { 0% {opacity: 0} 38.333333% {opacity: 0} 50% {opacity: 1} 100% {opacity: 1}} #e75HuE8ek1y6 {animation: e75HuE8ek1y6_c_o 3000ms linear infinite normal forwards}@keyframes e75HuE8ek1y6_c_o { 0% {opacity: 0} 38.333333% {opacity: 0} 50% {opacity: 1} 100% {opacity: 1}} #e75HuE8ek1y7 {animation: e75HuE8ek1y7_c_o 3000ms linear infinite normal forwards}@keyframes e75HuE8ek1y7_c_o { 0% {opacity: 0} 38.333333% {opacity: 0} 50% {opacity: 1} 100% {opacity: 1}} #e75HuE8ek1y8 {animation: e75HuE8ek1y8_c_o 3000ms linear infinite normal forwards}@keyframes e75HuE8ek1y8_c_o { 0% {opacity: 0} 38.333333% {opacity: 0} 50% {opacity: 1} 100% {opacity: 1}} #e75HuE8ek1y9 {animation: e75HuE8ek1y9_c_o 3000ms linear infinite normal forwards}@keyframes e75HuE8ek1y9_c_o { 0% {opacity: 0} 38.333333% {opacity: 0} 50% {opacity: 1} 100% {opacity: 1}} #e75HuE8ek1y10 {animation: e75HuE8ek1y10_c_o 3000ms linear infinite normal forwards}@keyframes e75HuE8ek1y10_c_o { 0% {opacity: 0} 38.333333% {opacity: 0} 50% {opacity: 1} 100% {opacity: 1}} #e75HuE8ek1y11 {animation: e75HuE8ek1y11_c_o 3000ms linear infinite normal forwards}@keyframes e75HuE8ek1y11_c_o { 0% {opacity: 0} 38.333333% {opacity: 0} 50% {opacity: 1} 100% {opacity: 1}}
]]></style>
<rect width="67.768715" height="52" rx="0" ry="0" transform="translate(-7.941815 0)" fill="#d2dbed" stroke-width="0"/><path d="M12.4755,51.0001c-.5397,0-1.045-.2092-1.4245-.5886L1.59134,40.9509C1.21009,40.5696,1,40.0634,1,39.5255s.21009-1.0442.59134-1.4254l2.83357-2.8336c.37672-.3767.87841-.5841,1.4127-.5841.36314,0,.71994.0969,1.03236.2808l.30247.1784l6.47036-5.4055c.6158-.5143,1.2488-.9073,1.8809-1.1682c1.2162-.5026,2.5402-.757,3.9338-.757c1.8891,0,3.5363.4636,4.5868.853.7824.2898,1.6138.4374,2.4722.4374h6.3409c1.3176,0,2.5193.6122,3.2972,1.6781l.327.4491l6.4006-5.8328c.7942-.7236,1.8311-1.122,2.9196-1.122c1.007,0,1.9841.3477,2.752.9798.4275.3523.6774.8522.7037,1.4064s-.1748,1.074-.566,1.4652L38.5571,38.2595c-1.0794,1.0794-3.0074,1.8944-5.7323,2.4224-2.7158.5261-5.5675.6366-7.4819.6366-.9898,0-1.9778-.0308-2.8571-.0878-.1395-.0091-.2825-.0145-.4238-.0145-1.7568,0-3.4376.7136-4.7335,2.0095l-1.0459,1.0459.4519.4519c.3803.3803.5895.8866.5895,1.4254s-.2092,1.045-.5895,1.4254l-2.8336,2.8344c-.3803.3795-.8866.5887-1.4263.5887l.0009.0027ZM1.95629,40.4718l9.51581,9.5177c.2681.2671.6249.4138,1.0034.4138s.7353-.1467,1.0034-.4148l2.8336-2.8335c.5506-.5524.5515-1.4508.0027-2.0032-.0516-.0516-9.17355-9.1744-9.46243-9.4624-.26896-.268-.62485-.4156-1.00339-.4156s-.73442.1476-1.00247.4147L2.01334,38.5221c-.26895.2698-.41656.6266-.41566,1.0061c0,.3486.12588.6774.35499.9354l.00362.0073v.0009ZM15.8588,43.8523l1.0468-1.0468c1.3874-1.3874,3.2764-2.1825,5.1827-2.1825.1458,0,.2925.0046.4374.0136.8249.0534,1.7803.0824,2.7611.0824c2.9974,0,10.2484-.2807,12.8474-2.8797L48.2686,27.7049c.268-.2689.4111-.6393.393-1.0169-.019-.3768-.1965-.7299-.489-.9699-.6629-.5461-1.5069-.8476-2.3735-.8476-.9373,0-1.8302.3441-2.5157.9698l-6.5727,5.9886.0778.2925c.0924.3469.1386.7073.1359,1.0732-.0082,1.0993-.9165,1.994-2.0249,1.994h-14.2511c-.1648,0-.2989-.134-.2989-.2988s.1341-.2988.2989-.2988h14.252c.7815,0,1.4227-.6285,1.4272-1.401.0073-.9282-.3495-1.8039-1.0061-2.465-.6556-.661-1.5304-1.0242-2.465-1.0242h-6.3409c-.9291,0-1.831-.1594-2.6805-.4745-1.0034-.3722-2.5764-.8159-4.3739-.8159-1.3167,0-2.5655.24-3.7093.7118-.575.2372-1.1564.5985-1.726,1.0749L7.61527,35.5518l.39936.4021c.15576.1566,7.84417,7.9002,7.84417,7.9002v-.0018Z" fill="#fff" stroke="#fff"/><g id="e75HuE8ek1y4_ts" transform="translate(31.868002,14.455745) rotate(361) scale(0.2,0.2)"><path d="M27.8399,22.9193c-.6557,0-1.305-.3061-1.7369-.8196-.4311-.5116-.605-1.1609-.4909-1.8301l.4211-2.4569c.0924-.5406-.086-1.0921-.479-1.4743l-1.7768-1.7278c-.6312-.6131-.8458-1.4797-.5741-2.3183.2717-.8377.9536-1.4136,1.8238-1.5404l2.4569-.3586c.5406-.0788,1.0079-.41837,1.2506-.90738l1.1066-2.23588c.3894-.78786,1.1474-1.25785,2.0276-1.25785s1.6382.47181,2.0276,1.26147L34.9958,9.4832c.2408.49083.709.8313,1.2515.911l2.4613.3586c.8703.1268,1.5522.7018,1.8239,1.5395.2717.8368.0579,1.7034-.5714,2.3174l-1.775,1.7306c-.3912.3812-.5696.9309-.479,1.4697l.4183,2.4632c.1132.6683-.0606,1.3176-.4917,1.8275-.4329.5125-1.0822.8186-1.7378.8186-.364,0-.7199-.0906-1.0559-.2681L32.6485,21.493c-.2391-.1259-.5071-.192-.777-.192s-.537.0661-.7761.1911l-2.2005,1.1601c-.3369.1774-.6919.2671-1.0559.2671h.0009Zm4.028-16.33033c-.6375,0-1.209.35498-1.4915.9255L29.2698,9.75035c-.3297.66555-.9654,1.12745-1.6998,1.23335l-2.4568.3587c-.633.0932-1.1483.5279-1.3448,1.1347-.1965.6058-.0335,1.2587.4238,1.7052L25.968,15.911c.5343.5189.7788,1.2678.6529,2.0032l-.421,2.4568c-.0834.4854.0489.978.3622,1.3511.3197.3795.7842.5968,1.275.5968.2708,0,.5325-.0661.7788-.1956l2.1997-1.1591c.3242-.1712.6882-.2618,1.0541-.2618.3658,0,.7317.0906,1.0559.2627l2.1924,1.1582c.2472.1295.5089.1947.7788.1947.4908,0,.9554-.2173,1.2751-.5959.3187-.3767.4473-.8558.364-1.3493l-.4175-2.4632c-.124-.7317.1187-1.4788.6512-1.9968l1.774-1.7305c.4564-.4456.6185-1.0985.4229-1.7034-.1965-.6068-.7118-1.0415-1.3439-1.1347l-2.4614-.3586c-.7371-.1078-1.3737-.5706-1.7015-1.23706L33.3603,7.519c-.2826-.57324-.8549-.93003-1.4924-.93003Z" transform="translate(-31.868002,-14.455745)" fill="#fff" stroke="#fff"/></g><path id="e75HuE8ek1y5" d="M31.8672,2.74505c-.1648,0-.2988-.13402-.2988-.29884v-1.14737c0-.16481.134-.29884.2988-.29884s.2988.13403.2988.29884v1.14737c0,.16482-.134.29884-.2988.29884Z" opacity="0" fill="#fff" stroke="#fff"/><path id="e75HuE8ek1y6" d="M25.8636,4.35373c-.1087,0-.2056-.05615-.259-.14852l-.5741-.99432c-.0399-.06883-.0507-.14942-.0299-.2273.0208-.07698.0697-.14127.1395-.18112.047-.02717.0959-.04075.1485-.04075.1068,0,.2055.05705.259.14942l.5741.99433c.0399.06882.0507.14942.0299.22639s-.0697.14127-.1395.18112c-.0452.02626-.096.03984-.1485.03984v.00091Z" opacity="0" fill="#fff" stroke="#fff"/><path id="e75HuE8ek1y7" d="M21.4648,8.7488c-.0526,0-.1024-.01359-.1486-.03985l-.9934-.57323c-.1422-.08241-.1911-.26534-.1096-.40842.0535-.09237.1522-.14942.259-.14942.0526,0,.1024.01358.1486.04075l.9943.57323c.1422.08241.1911.26534.1096.40842-.0535.09146-.1531.14852-.2599.14852Z" opacity="0" fill="#fff" stroke="#fff"/><path id="e75HuE8ek1y8" d="M18.711,14.7542c-.1649,0-.2989-.134-.2989-.2989c0-.1648.134-.2988.2989-.2988h1.1473c.1648,0,.2989.134.2989.2988c0,.1649-.1341.2989-.2989.2989h-1.1473Z" opacity="0" fill="#fff" stroke="#fff"/><path id="e75HuE8ek1y9" d="M43.877,14.7542c-.1648,0-.2989-.134-.2989-.2989c0-.1648.1341-.2988.2989-.2988h1.1473c.1649,0,.2989.134.2989.2988c0,.1649-.134.2989-.2989.2989h-1.1473Z" opacity="0" fill="#fff" stroke="#fff"/><path id="e75HuE8ek1y10" d="M42.27,8.74873c-.1087,0-.2056-.05615-.2599-.15033-.0815-.14218-.0326-.3251.1105-.40751l.9934-.57323c.0462-.02717.096-.04076.1485-.04076.1069,0,.2065.05796.2608.15033.0815.14127.0326.3251-.1105.40751l-.9934.57323c-.0462.02627-.096.03985-.1485.03985l-.0009.00091Z" opacity="0" fill="#fff" stroke="#fff"/><path id="e75HuE8ek1y11" d="M37.8726,4.35356c-.0526,0-.1024-.01359-.1486-.03985-.0688-.03984-.1186-.10414-.1394-.18112s-.19273.14144-.15283.07262l.75683-1.29243c.0543-.09418.1503-.15033.2581-.15033.0525,0,.1023.01358.1485.04075.1431.08241.192.26624.1096.40842l-.5742.99342c-.0543.09328-.1512.14942-.2589.14942l.0009-.0009Z" opacity="0" fill="#fff" stroke="#fff"/></svg>

<svg width="50" height="52" viewBox="0 0 50 52" fill="none" xmlns="http://www.w3.org/2000/svg">
<path d="M12.4755 51.0001C11.9358 51.0001 11.4305 50.7909 11.051 50.4115L1.59134 40.9509C1.21009 40.5696 1 40.0634 1 39.5255C1 38.9876 1.21009 38.4813 1.59134 38.1001L4.42491 35.2665C4.80163 34.8898 5.30332 34.6824 5.83761 34.6824C6.20075 34.6824 6.55755 34.7793 6.86997 34.9632L7.17244 35.1416L13.6428 29.7361C14.2586 29.2218 14.8916 28.8288 15.5237 28.5679C16.7399 28.0653 18.0639 27.8109 19.4575 27.8109C21.3466 27.8109 22.9938 28.2745 24.0443 28.6639C24.8267 28.9537 25.6581 29.1013 26.5165 29.1013H32.8574C34.175 29.1013 35.3767 29.7135 36.1546 30.7794L36.4816 31.2285L42.8822 25.3957C43.6764 24.6721 44.7133 24.2737 45.8018 24.2737C46.8088 24.2737 47.7859 24.6214 48.5538 25.2535C48.9813 25.6058 49.2312 26.1057 49.2575 26.6599C49.2837 27.2141 49.0827 27.7339 48.6915 28.1251L38.5571 38.2595C37.4777 39.3389 35.5497 40.1539 32.8248 40.6819C30.109 41.208 27.2573 41.3185 25.3429 41.3185C24.3531 41.3185 23.3651 41.2877 22.4858 41.2307C22.3463 41.2216 22.2033 41.2162 22.062 41.2162C20.3052 41.2162 18.6244 41.9298 17.3285 43.2257L16.2826 44.2716L16.7345 44.7235C17.1148 45.1038 17.324 45.6101 17.324 46.1489C17.324 46.6877 17.1148 47.1939 16.7345 47.5743L13.9009 50.4087C13.5206 50.7882 13.0143 50.9974 12.4746 50.9974L12.4755 51.0001ZM1.95629 40.4718L11.4721 49.9895C11.7402 50.2566 12.097 50.4033 12.4755 50.4033C12.854 50.4033 13.2108 50.2566 13.4789 49.9885L16.3125 47.155C16.8631 46.6026 16.864 45.7042 16.3152 45.1518C16.2636 45.1002 7.14165 35.9774 6.85277 35.6894C6.58381 35.4214 6.22792 35.2738 5.84938 35.2738C5.47085 35.2738 5.11496 35.4214 4.84691 35.6885L2.01334 38.5221C1.74439 38.7919 1.59678 39.1487 1.59768 39.5282C1.59768 39.8768 1.72356 40.2056 1.95267 40.4636L1.95629 40.4709V40.4718ZM15.8588 43.8523L16.9056 42.8055C18.293 41.4181 20.182 40.623 22.0883 40.623C22.2341 40.623 22.3808 40.6276 22.5257 40.6366C23.3506 40.69 24.306 40.719 25.2868 40.719C28.2842 40.719 35.5352 40.4383 38.1342 37.8393L48.2686 27.7049C48.5366 27.436 48.6797 27.0656 48.6616 26.688C48.6426 26.3112 48.4651 25.9581 48.1726 25.7181C47.5097 25.172 46.6657 24.8705 45.7991 24.8705C44.8618 24.8705 43.9689 25.2146 43.2834 25.8403L36.7107 31.8289L36.7885 32.1214C36.8809 32.4683 36.9271 32.8287 36.9244 33.1946C36.9162 34.2939 36.0079 35.1886 34.8995 35.1886H20.6484C20.4836 35.1886 20.3495 35.0546 20.3495 34.8898C20.3495 34.725 20.4836 34.591 20.6484 34.591H34.9004C35.6819 34.591 36.3231 33.9625 36.3276 33.19C36.3349 32.2618 35.9781 31.3861 35.3215 30.725C34.6659 30.064 33.7911 29.7008 32.8565 29.7008H26.5156C25.5865 29.7008 24.6846 29.5414 23.8351 29.2263C22.8317 28.8541 21.2587 28.4104 19.4612 28.4104C18.1445 28.4104 16.8957 28.6504 15.7519 29.1222C15.1769 29.3594 14.5955 29.7207 14.0259 30.1971L7.61527 35.5518L8.01463 35.9539C8.17039 36.1105 15.8588 43.8541 15.8588 43.8541V43.8523Z" fill="white" stroke="white"/>
<path d="M27.8399 22.9193C27.1842 22.9193 26.5349 22.6132 26.103 22.0997C25.6719 21.5881 25.498 20.9388 25.6121 20.2696L26.0332 17.8127C26.1256 17.2721 25.9472 16.7206 25.5542 16.3384L23.7774 14.6106C23.1462 13.9975 22.9316 13.1309 23.2033 12.2923C23.475 11.4546 24.1569 10.8787 25.0271 10.7519L27.484 10.3933C28.0246 10.3145 28.4919 9.97493 28.7346 9.48592L29.8412 7.25004C30.2306 6.46218 30.9886 5.99219 31.8688 5.99219C32.749 5.99219 33.507 6.464 33.8964 7.25366L34.9958 9.4832C35.2366 9.97403 35.7048 10.3145 36.2473 10.3942L38.7086 10.7528C39.5789 10.8796 40.2608 11.4546 40.5325 12.2923C40.8042 13.1291 40.5904 13.9957 39.9611 14.6097L38.1861 16.3403C37.7949 16.7215 37.6165 17.2712 37.7071 17.81L38.1254 20.2732C38.2386 20.9415 38.0648 21.5908 37.6337 22.1007C37.2008 22.6132 36.5515 22.9193 35.8959 22.9193C35.5319 22.9193 35.176 22.8287 34.84 22.6512L32.6485 21.493C32.4094 21.3671 32.1414 21.301 31.8715 21.301C31.6016 21.301 31.3345 21.3671 31.0954 21.4921L28.8949 22.6522C28.558 22.8296 28.203 22.9193 27.839 22.9193H27.8399ZM31.8679 6.58897C31.2304 6.58897 30.6589 6.94395 30.3764 7.51447L29.2698 9.75035C28.9401 10.4159 28.3044 10.8778 27.57 10.9837L25.1132 11.3424C24.4802 11.4356 23.9649 11.8703 23.7684 12.4771C23.5719 13.0829 23.7349 13.7358 24.1922 14.1823L25.968 15.911C26.5023 16.4299 26.7468 17.1788 26.6209 17.9142L26.1999 20.371C26.1165 20.8564 26.2488 21.349 26.5621 21.7221C26.8818 22.1016 27.3463 22.3189 27.8371 22.3189C28.1079 22.3189 28.3696 22.2528 28.6159 22.1233L30.8156 20.9642C31.1398 20.793 31.5038 20.7024 31.8697 20.7024C32.2355 20.7024 32.6014 20.793 32.9256 20.9651L35.118 22.1233C35.3652 22.2528 35.6269 22.318 35.8968 22.318C36.3876 22.318 36.8522 22.1007 37.1719 21.7221C37.4906 21.3454 37.6192 20.8663 37.5359 20.3728L37.1184 17.9096C36.9944 17.1779 37.2371 16.4308 37.7696 15.9128L39.5436 14.1823C40 13.7367 40.1621 13.0838 39.9665 12.4789C39.77 11.8721 39.2547 11.4374 38.6226 11.3442L36.1612 10.9856C35.4241 10.8778 34.7875 10.415 34.4597 9.74854L33.3603 7.519C33.0777 6.94576 32.5054 6.58897 31.8679 6.58897Z" fill="white" stroke="white"/>
<path d="M31.8672 2.74505C31.7024 2.74505 31.5684 2.61103 31.5684 2.44621V1.29884C31.5684 1.13403 31.7024 1 31.8672 1C32.032 1 32.166 1.13403 32.166 1.29884V2.44621C32.166 2.61103 32.032 2.74505 31.8672 2.74505Z" fill="white" stroke="white"/>
<path d="M25.8636 4.35373C25.7549 4.35373 25.658 4.29758 25.6046 4.20521L25.0305 3.21089C24.9906 3.14206 24.9798 3.06147 25.0006 2.98359C25.0214 2.90661 25.0703 2.84232 25.1401 2.80247C25.1871 2.7753 25.236 2.76172 25.2886 2.76172C25.3954 2.76172 25.4941 2.81877 25.5476 2.91114L26.1217 3.90547C26.1616 3.97429 26.1724 4.05489 26.1516 4.13186C26.1308 4.20884 26.0819 4.27313 26.0121 4.31298C25.9669 4.33924 25.9161 4.35282 25.8636 4.35282V4.35373Z" fill="white" stroke="white"/>
<path d="M21.4648 8.7488C21.4122 8.7488 21.3624 8.73521 21.3162 8.70895L20.3228 8.13572C20.1806 8.05331 20.1317 7.87038 20.2132 7.7273C20.2667 7.63493 20.3654 7.57788 20.4722 7.57788C20.5248 7.57788 20.5746 7.59146 20.6208 7.61863L21.6151 8.19186C21.7573 8.27427 21.8062 8.4572 21.7247 8.60028C21.6712 8.69174 21.5716 8.7488 21.4648 8.7488Z" fill="white" stroke="white"/>
<path d="M18.711 14.7542C18.5461 14.7542 18.4121 14.6202 18.4121 14.4553C18.4121 14.2905 18.5461 14.1565 18.711 14.1565H19.8583C20.0231 14.1565 20.1572 14.2905 20.1572 14.4553C20.1572 14.6202 20.0231 14.7542 19.8583 14.7542H18.711Z" fill="white" stroke="white"/>
<path d="M43.877 14.7542C43.7122 14.7542 43.5781 14.6202 43.5781 14.4553C43.5781 14.2905 43.7122 14.1565 43.877 14.1565H45.0243C45.1892 14.1565 45.3232 14.2905 45.3232 14.4553C45.3232 14.6202 45.1892 14.7542 45.0243 14.7542H43.877Z" fill="white" stroke="white"/>
<path d="M42.27 8.74873C42.1613 8.74873 42.0644 8.69258 42.0101 8.5984C41.9286 8.45622 41.9775 8.2733 42.1206 8.19089L43.114 7.61766C43.1602 7.59049 43.21 7.5769 43.2625 7.5769C43.3694 7.5769 43.469 7.63486 43.5233 7.72723C43.6048 7.8685 43.5559 8.05233 43.4128 8.13474L42.4194 8.70797C42.3732 8.73424 42.3234 8.74782 42.2709 8.74782L42.27 8.74873Z" fill="white" stroke="white"/>
<path d="M37.8726 4.35356C37.82 4.35356 37.7702 4.33997 37.724 4.31371C37.6552 4.27387 37.6054 4.20957 37.5846 4.13259C37.5638 4.05562 37.5746 3.97502 37.6145 3.9062L38.1886 2.91278C38.2429 2.8186 38.3389 2.76245 38.4467 2.76245C38.4992 2.76245 38.549 2.77603 38.5952 2.8032C38.7383 2.88561 38.7872 3.06944 38.7048 3.21162L38.1306 4.20504C38.0763 4.29832 37.9794 4.35446 37.8717 4.35446L37.8726 4.35356Z" fill="white" stroke="white"/>
</svg>
